X:1
T:Too Young to Marry
L:1/8
M:2/2
I:linebreak $
K:D
V:1 treble nm="Voice" snm="Voice"
V:1
 [Ff]2 g2 |"D" aAbA aAeg | fd d2 d2 [Ff]2 | aAbA aAga |"Em" bgbg e2 [Ff]2 |$ aAbA aAeg | %6
 fc- c2 c2 ef | gfed cABc | d6 ::$ AB | dBAG FEDE | FABc d2 AB | dBAG F2 E2 | E3 F E2 AB |$ %14
 dBAG FEDE | FABc d4 | ABcd egfe | d6 :| %18
